X:9079
T:La stonique (Variante für den ersten Teil)
C:Stephan Steiner
R:Bourree a deux temps
Z:abc transcription Helmut Eberl
M:3/8
L:1/8
K:Gmix
BGd|cB/G/B/c/|dGe|Af^A|
BGd|cB/G/B/c/|FdG|cFd:|


